X: 20763
M: 6/8
L: 1/8
K: D
c/d/ |\
e2e ecA | ^G2A B2c | d2d dB^G | AcA E2 c/d/ |\
e2e ecA | a2a afd | .c.e.c dB^G | ABA GA"^D.C."G |]


